X: 31506
T: Paddy's
R: polka
M: 2/4
K: Eminor
|:BE ED/E/|FD FA|BE ED/E/|FE D2|
BE ED/E/|FD FA|B>c BA|F/G/F/E/ D/E/F/A/:|
|:Be ed/e/|fe dA|Be ed/e/|fe d2|
Be ed/e/|fe dA|B>c BA|F/G/F/E/ D/E/F/A/:|

